X: 1
T: Tommy Peoples'
R: mazurka
M: 3/4
L: 1/8
K: Dmaj
|:FG|AF A2 dc|BG B2 ef|ge cA Bc|BA F2 FG|
AF A2 dc|BG B2 ef|ge cA Bc|d4:|
|:fg|af dA cd|c2 B2 ef|ge cA Bc|BA F2 fg|
af dA cd|c2 B2 ef|ge cA Bc|d4 :||


Tune 1323	Setting 14665

